X: 1
T: Nathan's Study
M: 2/4
L: 1/8
R: polka
K: Dmaj
|: e/d/c/B/ | AD F>d | cB Bc/B/ | Ac eg | 
fd d/c/d/B/ |AD F>d | cB Bc/B/ | Ac ec | d2 :|
|: c/B/A/G/ | Ad fe/f/ | gB dc/B/ | Ac e/f/g |
fd/e/ g/f/e/d/ |Ad fe/f/ | gB gB | Ac ec | d2 :|
